X:419
T:I skovens dybe stille ro
C:anon.
O:Denmark
Z:Transcribed by Frank Nordberg - http://www.musicaviva.com
F:http://abc.musicaviva.com/tunes/denmark/i-skovens-dype-stille.abc
M:2/4
L:1/8
Q:1/4=100
K:D
D/F/|"D"AA "A"AA/B/|"D"AA/F/ "Bm"DD/E/|"D"FF/G/ "A7"EC|"D"D2 z:|
w:I_ sko-vens dy-be_ stil-le_ ro, hvor_ san-ger--h\ae-re bo,
w:hvor_ sj\ae-len lyt-ted'_ man-gen_ gang til_ fug-lens_ gla-de sang.
D/F/|"D"AA AA|"G"B>G "D"A"B"B|"Em"GG "A7"GA|"D"F2 z F|
